SVG_Azure_All/O365 - Excel.svg

<?xml version="1.0" encoding="UTF-8" standalone="no"?>
<!-- Generated by Microsoft Visio, SVG Export O365 - Excel.svg Page-1 -->

<svg
   xmlns:dc="http://purl.org/dc/elements/1.1/"
   xmlns:cc="http://creativecommons.org/ns#"
   xmlns:rdf="http://www.w3.org/1999/02/22-rdf-syntax-ns#"
   xmlns:svg="http://www.w3.org/2000/svg"
   xmlns="http://www.w3.org/2000/svg"
   xmlns:sodipodi="http://sodipodi.sourceforge.net/DTD/sodipodi-0.dtd"
   xmlns:inkscape="http://www.inkscape.org/namespaces/inkscape"
   width="0.78740436in"
   height="0.78740019in"
   viewBox="0 0 56.6932 56.692752"
   xml:space="preserve"
   class="st9"
   version="1.1"
   id="svg74"
   sodipodi:docname="O365 - Excel.svg"
   style="font-size:12px;overflow:visible;color-interpolation-filters:sRGB;fill:none;fill-rule:evenodd;stroke-linecap:square;stroke-miterlimit:3"
   inkscape:version="0.92.5 (2060ec1f9f, 2020-04-08)"><metadata
   id="metadata80"><rdf:RDF><cc:Work
       rdf:about=""><dc:format>image/svg+xml</dc:format><dc:type
         rdf:resource="http://purl.org/dc/dcmitype/StillImage" /></cc:Work></rdf:RDF></metadata><defs
   id="defs78" /><sodipodi:namedview
   pagecolor="#ffffff"
   bordercolor="#666666"
   borderopacity="1"
   objecttolerance="10"
   gridtolerance="10"
   guidetolerance="10"
   inkscape:pageopacity="0"
   inkscape:pageshadow="2"
   inkscape:window-width="640"
   inkscape:window-height="480"
   id="namedview76"
   showgrid="false"
   inkscape:zoom="1.6337589"
   inkscape:cx="37.79521"
   inkscape:cy="26.871557"
   inkscape:window-x="0"
   inkscape:window-y="0"
   inkscape:window-maximized="0"
   inkscape:current-layer="svg74" />
	<style
   type="text/css"
   id="style2">
	<![CDATA[
		.st1 {fill:#21a366;stroke:none;stroke-linecap:butt;stroke-width:17.6303}
		.st2 {fill:#107c41;stroke:none;stroke-linecap:butt;stroke-width:17.6303}
		.st3 {fill:#33c481;stroke:none;stroke-linecap:butt;stroke-width:17.6303}
		.st4 {fill:#185c37;stroke:none;stroke-linecap:butt;stroke-width:17.6303}
		.st5 {fill:#000000;fill-opacity:0.098;stroke:none;stroke-linecap:butt;stroke-width:17.6303}
		.st6 {fill:#000000;fill-opacity:0.2;stroke:none;stroke-linecap:butt;stroke-width:17.6303}
		.st7 {fill:#ffffff;stroke:none;stroke-linecap:butt;stroke-width:17.6303}
		.st8 {fill:none;stroke:none;stroke-linecap:butt;stroke-width:17.6303}
		.st9 {fill:none;fill-rule:evenodd;font-size:12px;overflow:visible;stroke-linecap:square;stroke-miterlimit:3}
	]]>
	</style>

	<g
   id="g72"
   transform="translate(-17.6303,-17.630439)">
		<title
   id="title4">Page-1</title>
		<g
   id="group2638-1"
   transform="translate(17.6303,-34.0157)">
			<title
   id="title6">O365 - Excel</title>
			<g
   id="group2639-2">
				<title
   id="title8">g26</title>
				<g
   id="shape2640-3"
   transform="translate(14.1732,-23.8606)">
					<title
   id="title10">path2</title>
					<path
   d="M 21.26,79.05 H 2.36 A 2.36161,2.36161 -180 0 0 0,81.41 v 10.04 l 21.26,12.4 10.63,4.49 10.63,-4.49 v -12.4 z"
   class="st1"
   id="path12"
   inkscape:connector-curvature="0"
   style="fill:#21a366;stroke:none;stroke-width:17.63030052;stroke-linecap:butt" />
				</g>
				<g
   id="shape2641-5"
   transform="translate(14.1732,-28.3465)">
					<title
   id="title15">path4</title>
					<rect
   x="0"
   y="95.937401"
   width="21.2598"
   height="12.4016"
   class="st2"
   id="rect17"
   style="fill:#107c41;stroke:none;stroke-width:17.63030052;stroke-linecap:butt" />
				</g>
				<g
   id="shape2642-7"
   transform="translate(35.4331,-40.748)">
					<title
   id="title20">path6</title>
					<path
   d="M 18.9,95.94 H 0 v 12.4 H 21.26 V 98.3 A 2.36161,2.36161 -180 0 0 18.9,95.94 Z"
   class="st3"
   id="path22"
   inkscape:connector-curvature="0"
   style="fill:#33c481;stroke:none;stroke-width:17.63030052;stroke-linecap:butt" />
				</g>
				<g
   id="shape2643-9"
   transform="translate(14.1732,-3.54331)">
					<title
   id="title25">path8</title>
					<path
   d="M 21.26,83.54 H 0 v 22.44 a 2.36161,2.36161 -180 0 0 2.36,2.36 h 37.8 a 2.36161,2.36161 -180 0 0 2.36,-2.36 V 95.94 Z"
   class="st4"
   id="path27"
   inkscape:connector-curvature="0"
   style="fill:#185c37;stroke:none;stroke-width:17.63030052;stroke-linecap:butt" />
				</g>
				<g
   id="shape2644-11"
   transform="translate(35.4331,-15.9449)">
					<title
   id="title30">path10</title>
					<rect
   x="0"
   y="95.937401"
   width="21.2598"
   height="12.4016"
   class="st2"
   id="rect32"
   style="fill:#107c41;stroke:none;stroke-width:17.63030052;stroke-linecap:butt" />
				</g>
				<g
   id="shape2645-13"
   transform="translate(14.1732,-10.6299)">
					<title
   id="title35">path12</title>
					<path
   d="M 15.35,74.68 H 0 v 33.66 h 15.35 a 2.3687,2.3687 -180 0 0 2.37,-2.36 V 77.04 a 2.3687,2.3687 -180 0 0 -2.37,-2.36 z"
   class="st5"
   id="path37"
   inkscape:connector-curvature="0"
   style="fill:#000000;fill-opacity:0.09800002;stroke:none;stroke-width:17.63030052;stroke-linecap:butt" />
				</g>
				<g
   id="shape2646-15"
   transform="translate(14.1732,-8.85827)">
					<title
   id="title40">path14</title>
					<path
   d="M 13.58,74.68 H 0 v 33.66 h 13.58 a 2.3687,2.3687 -180 0 0 2.36,-2.36 V 77.04 a 2.3687,2.3687 -180 0 0 -2.36,-2.36 z"
   class="st6"
   id="path42"
   inkscape:connector-curvature="0"
   style="fill:#000000;fill-opacity:0.2;stroke:none;stroke-width:17.63030052;stroke-linecap:butt" />
				</g>
				<g
   id="shape2647-17"
   transform="translate(14.1732,-12.4016)">
					<title
   id="title45">path16</title>
					<path
   d="M 13.58,78.22 H 0 v 30.12 h 13.58 a 2.3687,2.3687 -180 0 0 2.36,-2.36 v -25.4 a 2.3687,2.3687 -180 0 0 -2.36,-2.36 z"
   class="st6"
   id="path47"
   inkscape:connector-curvature="0"
   style="fill:#000000;fill-opacity:0.2;stroke:none;stroke-width:17.63030052;stroke-linecap:butt" />
				</g>
				<g
   id="shape2648-19"
   transform="translate(14.1732,-12.4016)">
					<title
   id="title50">path18</title>
					<path
   d="M 11.81,78.22 H 0 v 30.12 h 11.81 a 2.3687,2.3687 -180 0 0 2.36,-2.36 v -25.4 a 2.3687,2.3687 -180 0 0 -2.36,-2.36 z"
   class="st6"
   id="path52"
   inkscape:connector-curvature="0"
   style="fill:#000000;fill-opacity:0.2;stroke:none;stroke-width:17.63030052;stroke-linecap:butt" />
				</g>
				<g
   id="shape2649-21"
   transform="translate(0,-14.1732)">
					<title
   id="title55">path20</title>
					<path
   d="m 2.36,79.99 h 23.62 a 2.36161,2.36161 0 0 1 2.37,2.36 v 23.63 a 2.36161,2.36161 0 0 1 -2.37,2.36 H 2.36 A 2.36161,2.36161 0 0 1 0,105.98 V 82.35 a 2.36161,2.36161 0 0 1 2.36,-2.36 z"
   class="st2"
   id="path57"
   inkscape:connector-curvature="0"
   style="fill:#107c41;stroke:none;stroke-width:17.63030052;stroke-linecap:butt" />
				</g>
				<g
   id="shape2650-23"
   transform="translate(6.25925,-19.4882)">
					<title
   id="title60">path22</title>
					<path
   d="M 0,108.34 5.73,99.46 0.48,90.62 h 4.23 l 2.86,5.65 c 0.27,0.53 0.45,0.93 0.55,1.2 h 0.03 c 0.19,-0.43 0.39,-0.85 0.6,-1.25 l 3.06,-5.6 h 3.88 l -5.39,8.79 5.53,8.93 H 11.7 l -3.31,-6.2 a 5.17677,5.17677 0 0 1 -0.4,-0.83 H 7.94 a 3.91004,3.91004 0 0 1 -0.38,0.8 l -3.41,6.23 z"
   class="st7"
   id="path62"
   inkscape:connector-curvature="0"
   style="fill:#ffffff;stroke:none;stroke-width:17.63030052;stroke-linecap:butt" />
				</g>
				<g
   id="shape2651-25">
					<title
   id="title65">path24</title>
					<rect
   x="0"
   y="51.646"
   width="56.692902"
   height="56.692902"
   class="st8"
   id="rect67"
   style="fill:none;stroke:none;stroke-width:17.63030052;stroke-linecap:butt" />
				</g>
			</g>
		</g>
	</g>
</svg>

<?xml version="1.0" encoding="UTF-8" standalone="no"?>
<!DOCTYPE svg PUBLIC "-//W3C//DTD SVG 1.1//EN" "http://www.w3.org/Graphics/SVG/1.1/DTD/svg11.dtd">
<!-- Generated by Microsoft Visio, SVG Export O365 - Excel.svg Page-1 -->
<svg xmlns="http://www.w3.org/2000/svg" xmlns:xlink="http://www.w3.org/1999/xlink" xmlns:ev="http://www.w3.org/2001/xml-events"
		width="1.27713in" height="1.50471in" viewBox="0 0 91.9535 108.339" xml:space="preserve" color-interpolation-filters="sRGB"
		class="st9">
	<style type="text/css">
	<![CDATA[
		.st1 {fill:#21a366;stroke:none;stroke-linecap:butt;stroke-width:17.6303}
		.st2 {fill:#107c41;stroke:none;stroke-linecap:butt;stroke-width:17.6303}
		.st3 {fill:#33c481;stroke:none;stroke-linecap:butt;stroke-width:17.6303}
		.st4 {fill:#185c37;stroke:none;stroke-linecap:butt;stroke-width:17.6303}
		.st5 {fill:#000000;fill-opacity:0.098;stroke:none;stroke-linecap:butt;stroke-width:17.6303}
		.st6 {fill:#000000;fill-opacity:0.2;stroke:none;stroke-linecap:butt;stroke-width:17.6303}
		.st7 {fill:#ffffff;stroke:none;stroke-linecap:butt;stroke-width:17.6303}
		.st8 {fill:none;stroke:none;stroke-linecap:butt;stroke-width:17.6303}
		.st9 {fill:none;fill-rule:evenodd;font-size:12px;overflow:visible;stroke-linecap:square;stroke-miterlimit:3}
	]]>
	</style>

	<g>
		<title>Page-1</title>
		<g id="group2612-1" transform="translate(17.6303,-34.0157)">
			<title>O365 - Excel</title>
			<g id="group2613-2">
				<title>g26</title>
				<g id="shape2614-3" transform="translate(14.1732,-23.8606)">
					<title>path2</title>
					<path d="M21.26 79.05 L2.36 79.05 A2.36161 2.36161 -180 0 0 0 81.41 L0 91.45 L21.26 103.85 L31.89 108.34 L42.52
								 103.85 L42.52 91.45 L21.26 79.05 Z" class="st1"/>
				</g>
				<g id="shape2615-5" transform="translate(14.1732,-28.3465)">
					<title>path4</title>
					<rect x="0" y="95.9374" width="21.2598" height="12.4016" class="st2"/>
				</g>
				<g id="shape2616-7" transform="translate(35.4331,-40.748)">
					<title>path6</title>
					<path d="M18.9 95.94 L0 95.94 L0 108.34 L21.26 108.34 L21.26 98.3 A2.36161 2.36161 -180 0 0 18.9 95.94 Z"
							class="st3"/>
				</g>
				<g id="shape2617-9" transform="translate(14.1732,-3.54331)">
					<title>path8</title>
					<path d="M21.26 83.54 L0 83.54 L0 105.98 A2.36161 2.36161 -180 0 0 2.36 108.34 L40.16 108.34 A2.36161 2.36161
								 -180 0 0 42.52 105.98 L42.52 95.94 L21.26 83.54 Z" class="st4"/>
				</g>
				<g id="shape2618-11" transform="translate(35.4331,-15.9449)">
					<title>path10</title>
					<rect x="0" y="95.9374" width="21.2598" height="12.4016" class="st2"/>
				</g>
				<g id="shape2619-13" transform="translate(14.1732,-10.6299)">
					<title>path12</title>
					<path d="M15.35 74.68 L0 74.68 L0 108.34 L15.35 108.34 A2.3687 2.3687 -180 0 0 17.72 105.98 L17.72 77.04 A2.3687
								 2.3687 -180 0 0 15.35 74.68 Z" class="st5"/>
				</g>
				<g id="shape2620-15" transform="translate(14.1732,-8.85827)">
					<title>path14</title>
					<path d="M13.58 74.68 L0 74.68 L0 108.34 L13.58 108.34 A2.3687 2.3687 -180 0 0 15.94 105.98 L15.94 77.04 A2.3687
								 2.3687 -180 0 0 13.58 74.68 Z" class="st6"/>
				</g>
				<g id="shape2621-17" transform="translate(14.1732,-12.4016)">
					<title>path16</title>
					<path d="M13.58 78.22 L0 78.22 L0 108.34 L13.58 108.34 A2.3687 2.3687 -180 0 0 15.94 105.98 L15.94 80.58 A2.3687
								 2.3687 -180 0 0 13.58 78.22 Z" class="st6"/>
				</g>
				<g id="shape2622-19" transform="translate(14.1732,-12.4016)">
					<title>path18</title>
					<path d="M11.81 78.22 L0 78.22 L0 108.34 L11.81 108.34 A2.3687 2.3687 -180 0 0 14.17 105.98 L14.17 80.58 A2.3687
								 2.3687 -180 0 0 11.81 78.22 Z" class="st6"/>
				</g>
				<g id="shape2623-21" transform="translate(0,-14.1732)">
					<title>path20</title>
					<path d="M2.36 79.99 L25.98 79.99 A2.36161 2.36161 0 0 1 28.35 82.35 L28.35 105.98 A2.36161 2.36161 0 0 1 25.98
								 108.34 L2.36 108.34 A2.36161 2.36161 0 0 1 0 105.98 L0 82.35 A2.36161 2.36161 0 0 1 2.36 79.99 Z"
							class="st2"/>
				</g>
				<g id="shape2624-23" transform="translate(6.25925,-19.4882)">
					<title>path22</title>
					<path d="M0 108.34 L5.73 99.46 L0.48 90.62 L4.71 90.62 L7.57 96.27 C7.84 96.8 8.02 97.2 8.12 97.47 L8.15 97.47
								 C8.34 97.04 8.54 96.62 8.75 96.22 L11.81 90.62 L15.69 90.62 L10.3 99.41 L15.83 108.34 L11.7 108.34
								 L8.39 102.14 A5.17677 5.17677 0 0 1 7.99 101.31 L7.94 101.31 A3.91004 3.91004 0 0 1 7.56 102.11
								 L4.15 108.34 L0 108.34 Z" class="st7"/>
				</g>
				<g id="shape2625-25">
					<title>path24</title>
					<rect x="0" y="51.646" width="56.6929" height="56.6929" class="st8"/>
				</g>
			</g>
		</g>
	</g>
</svg>
